dist/svg/tag-add.svg

<svg width="16" height="16" viewBox="0 0 16 16" fill="rgb(34, 34, 34)" xmlns="http://www.w3.org/2000/svg"><title>tag-add</title><path d="M13 11H16V13H13V16H11V13H7.99998V11H11V8H13V11ZM16 0V6.424L14 8.424V7H9.99998V10H6.99998V14H8.42398L6.89998 15.524C6.62998 15.806 6.24998 15.981 5.82898 15.981C5.40798 15.981 5.02898 15.806 4.75898 15.525L0.475982 11.242C0.193982 10.972 0.0189819 10.592 0.0189819 10.171C0.0189819 9.75 0.193982 9.371 0.474982 9.101H0.475982C1.54698 8.03 9.57698 0 9.57698 0L16 0ZM14 3.5C14 2.672 13.328 2 12.5 2C11.672 2 11 2.672 11 3.5C11 4.328 11.672 5 12.5 5C13.328 5 14 4.328 14 3.5Z" fill="rgb(34, 34, 34)" fill-opacity="1.00"/></svg>

<!-- Generated by Trend Micro Style Portal -->
<svg version="1.1" xmlns="http://www.w3.org/2000/svg" width="16" height="16" viewBox="0 0 16 16">
  <title>tag-add</title>
  <path fill="rgb(34,34,34)" d="M13 11h3v2h-3v3h-2v-3h-3v-2h3v-3h2zM16-0v6.424l-2 2v-1.424h-4v3h-3v4h1.424l-1.524 1.524c-0.27 0.282-0.65 0.457-1.071 0.457s-0.8-0.175-1.070-0.456l-0-0.001-4.283-4.282c-0.282-0.27-0.457-0.65-0.457-1.071s0.175-0.8 0.456-1.070l0.001-0c1.071-1.071 9.101-9.101 9.101-9.101zM14 3.5c0-0.828-0.672-1.5-1.5-1.5s-1.5 0.672-1.5 1.5c0 0.828 0.672 1.5 1.5 1.5v0c0.828 0 1.5-0.672 1.5-1.5v0z"></path>
</svg>
